X:5
T:Párta, párta
O: Ghymes (Nyitra), 1906
Q: "Moderato"
M:4/4
L:1/4
K:G
BBcB | A>GFE | F2 B, z | 
B<B c<B | AGF<E | D2 D z | 
GFE<F | B,>G F<E | D2 D z | 
EEAG | F<E ^D E | B,2 B, z | 

